packages/foundations/assets/icons/functional/images/maps/compass_28.svg

<svg width="28" height="28" viewBox="0 0 28 28" fill="none" xmlns="http://www.w3.org/2000/svg">
<g clip-path="url(#clip0_186_5)">
<path fill-rule="evenodd" clip-rule="evenodd" d="M14 1.75C17.3626 1.75 20.412 3.11325 22.6275 5.31388L22.6634 5.3375C22.6739 5.348 22.6774 5.36287 22.687 5.37337C24.8867 7.58975 26.25 10.6383 26.25 14C26.25 17.3617 24.8867 20.4102 22.687 22.6257C22.6774 22.6362 22.6739 22.6511 22.6634 22.6616L22.6275 22.6852C20.412 24.8867 17.3626 26.25 14 26.25C10.6339 26.25 7.581 24.8841 5.3655 22.6791L5.33925 22.6616C5.33138 22.6537 5.32963 22.6441 5.32175 22.6362C3.11588 20.4199 1.75 17.367 1.75 14C1.75 10.633 3.11588 7.58012 5.32175 5.36375L5.33925 5.3375L5.3655 5.32C7.58187 3.115 10.6339 1.75 14 1.75ZM14.875 3.54375V4.375C14.875 4.858 14.483 5.25 14 5.25C13.5161 5.25 13.125 4.858 13.125 4.375V3.54375C10.8876 3.73013 8.848 4.6165 7.2275 5.9885L7.81375 6.57475C8.15587 6.91687 8.15587 7.47075 7.81375 7.812C7.644 7.9835 7.41913 8.06837 7.19513 8.06837C6.97113 8.06837 6.748 7.9835 6.5765 7.812L5.99025 7.22575C4.61738 8.84625 3.73013 10.8868 3.54375 13.125H4.375C4.858 13.125 5.25 13.5161 5.25 14C5.25 14.483 4.858 14.875 4.375 14.875H3.54375C3.73013 17.1132 4.61738 19.1529 5.99025 20.7734L6.5765 20.1863C6.91775 19.8441 7.4725 19.8441 7.81375 20.1863C8.15587 20.5284 8.15587 21.0814 7.81375 21.4235L7.2275 22.0106C8.848 23.3826 10.8868 24.2699 13.125 24.4554V23.625C13.125 23.1411 13.5161 22.75 14 22.75C14.483 22.75 14.875 23.1411 14.875 23.625V24.4554C17.1132 24.2699 19.1529 23.3826 20.7734 22.0098L20.188 21.4235C19.8468 21.0814 19.8468 20.5275 20.188 20.1863C20.5301 19.8441 21.084 19.8441 21.4261 20.1863L22.0115 20.7716C23.3835 19.1511 24.2699 17.1124 24.4554 14.875H23.625C23.1411 14.875 22.75 14.483 22.75 14C22.75 13.5161 23.1411 13.125 23.625 13.125H24.4554C24.2699 10.8868 23.3826 8.848 22.0106 7.2275L21.4261 7.812C21.2546 7.9835 21.0306 8.06837 20.8066 8.06837C20.5835 8.06837 20.3595 7.9835 20.188 7.812C19.8468 7.47075 19.8468 6.91687 20.188 6.57475L20.7734 5.99025C19.1529 4.61738 17.1132 3.73013 14.875 3.54375ZM11.3034 14.5532C11.7794 14.6302 12.1067 15.0764 12.0323 15.5542L11.6289 18.1214L13.651 16.4887C14.0273 16.185 14.5786 16.2437 14.8813 16.6199C15.1849 16.9953 15.1263 17.5466 14.7509 17.8502L10.9613 20.9092C10.6804 21.1367 10.2875 21.1673 9.9743 20.9862C9.66105 20.8059 9.4913 20.4498 9.5473 20.0928L10.3033 15.2821C10.3785 14.8043 10.8257 14.4788 11.3034 14.5532ZM13.059 13.4558C13.3609 12.9326 14.0311 12.7532 14.5535 13.0551C15.0759 13.3561 15.2553 14.0263 14.9534 14.5487C14.6515 15.0711 13.9822 15.2513 13.4598 14.9495C12.9374 14.6476 12.758 13.9782 13.059 13.4558ZM18.0242 7.04375C18.3366 7.224 18.5063 7.5775 18.4521 7.93363L17.7215 12.7015C17.655 13.1346 17.2822 13.4444 16.8578 13.4444C16.8132 13.4444 16.7686 13.4409 16.724 13.4339C16.2462 13.3612 15.9181 12.915 15.9916 12.4373L16.3818 9.88925L14.3711 11.501C13.9931 11.802 13.4436 11.7434 13.1408 11.3663C12.839 10.9882 12.8993 10.4379 13.2765 10.136L17.0398 7.119C17.3216 6.89325 17.7118 6.8635 18.0242 7.04375Z" fill="#1A1C1F"/>
</g>
<defs>
<clipPath id="clip0_186_5">
<rect width="28" height="28" fill="white"/>
</clipPath>
</defs>
</svg>

<svg xmlns="http://www.w3.org/2000/svg" width="28" height="28" fill="none"><g clip-path="url(#a)"><path fill="#1A1C1F" fill-rule="evenodd" d="M14 1.75a12.2 12.2 0 0 1 8.628 3.564l.035.024c.01.01.014.025.024.035A12.21 12.21 0 0 1 26.25 14a12.2 12.2 0 0 1-3.563 8.626c-.01.01-.013.025-.024.036l-.035.023A12.2 12.2 0 0 1 14 26.25a12.2 12.2 0 0 1-8.634-3.57l-.027-.018c-.008-.008-.01-.018-.017-.026A12.2 12.2 0 0 1 1.75 14a12.2 12.2 0 0 1 3.572-8.636l.017-.026.026-.018A12.2 12.2 0 0 1 14 1.75m.875 1.794v.831a.875.875 0 0 1-1.75 0v-.831a10.45 10.45 0 0 0-5.897 2.445l.586.586a.874.874 0 1 1-1.237 1.237l-.587-.586a10.45 10.45 0 0 0-2.446 5.899h.831a.875.875 0 1 1 0 1.75h-.831a10.45 10.45 0 0 0 2.446 5.898l.587-.587a.874.874 0 1 1 1.237 1.238l-.586.587a10.44 10.44 0 0 0 5.897 2.444v-.83a.874.874 0 1 1 1.75 0v.83a10.44 10.44 0 0 0 5.898-2.445l-.585-.587a.876.876 0 0 1 1.238-1.237l.586.586a10.44 10.44 0 0 0 2.443-5.897h-.83a.875.875 0 1 1 0-1.75h.83a10.44 10.44 0 0 0-2.444-5.897l-.585.584a.87.87 0 0 1-1.238 0 .876.876 0 0 1 0-1.237l.585-.585a10.45 10.45 0 0 0-5.898-2.446m-3.572 11.01a.88.88 0 0 1 .73 1l-.404 2.567 2.022-1.632a.874.874 0 1 1 1.1 1.361l-3.79 3.06a.874.874 0 0 1-1.414-.817l.756-4.81a.875.875 0 0 1 1-.73m1.756-1.098a1.095 1.095 0 1 1 1.896 1.095 1.095 1.095 0 0 1-1.896-1.095m4.965-6.412c.313.18.482.534.428.89l-.73 4.767a.875.875 0 0 1-1.73-.264l.39-2.548-2.01 1.612a.876.876 0 1 1-1.095-1.365l3.763-3.017a.87.87 0 0 1 .984-.075" clip-rule="evenodd"/></g><defs><clipPath id="a"><path fill="#fff" d="M0 0h28v28H0z"/></clipPath></defs></svg>
